!!!COM:	Bartok
!!!OTL:	347_Bar-52/82/34-40
**kern	**kern	**dynam	**kern	**kern	**kern	**kern	**kern	**kern	**kern	**kern	**kern	**kern	**kern	**kern
*part14	*part13	*part13	*part12	*part11	*part10	*part9	*part8	*part7	*part6	*part5	*part4	*part3	*part2	*part1
*staff14	*staff13	*S	*staff12	*staff11	*staff10	*staff9	*staff8	*staff7	*staff6	*staff5	*staff4	*staff3	*staff2	*staff1
*I"Contrabass	*I"Violoncello	*	*I"Viola	*I"Violin II	*I"Violin II	*I"Violin I	*I"Violin I	*I"Timpani	*I"Horn in F	*I"Horn in F	*I"Bassoon	*I"Bassoon	*I"Flute	*I"Flute
*I'Cb.	*I'Vc.	*	*I'Vla.	*I'Vln. II	*I'Vln. II	*I'Vln. I	*I'Vln. I	*I'Timp.	*I'Hn.	*I'Hn.	*I'Bsn.	*I'Bsn.	*I'Fl.	*I'Fl.
*clefF4	*clefF4	*	*clefC3	*clefG2	*clefG2	*clefG2	*clefG2	*clefF4	*clefG2	*clefG2	*clefF4	*clefF4	*clefG2	*clefG2
*k[]	*k[]	*	*k[]	*k[]	*k[]	*k[]	*k[]	*	*	*	*k[]	*k[]	*k[]	*k[]
*	*	*	*	*	*	*	*	*	*	*	*	*	*	*
*M2/4	*M2/4	*	*M2/4	*M2/4	*M2/4	*M2/4	*M2/4	*M2/4	*M2/4	*M2/4	*M2/4	*M2/4	*M2/4	*M2/4
=1	=1	=1	=1	=1	=1	=1	=1	=1	=1	=1	=1	=1	=1	=1
*	*	*	*	*	*	*	*	*	*^	*^	*	*	*	*
4AAA 4AA	8EEL 8C#X 8E 8A	.	8EL 8c#X 8e 8a	16c#XLL	16eLL	16gLL	16cc#XLL	4AA	4E	2AA	[2e	[2A^	2r	2r	2r	2r
.	.	.	.	16B	16f#X	16a	16dd#X	.	.	.	.	.	.	.	.	.
.	8EEJ 8C# 8E 8A	.	8EJ 8c# 8e 8a	16A	16g	16b	16ee	.	.	.	.	.	.	.	.	.
.	.	.	.	16dJJ	16bJJ	16eeJJ	16ggJJ	.	.	.	.	.	.	.	.	.
4EEE 4EE	8EEL 8C# 8E 8A	.	8EL 8c# 8e 8a	16eLL	16gLL	16bLL	16eeLL	4E	[4E^	.	.	.	.	.	.	.
.	.	.	.	16f#X	16f#	16a	16ddn	.	.	.	.	.	.	.	.	.
.	8EEJ 8C# 8E 8A	.	8EJ 8c# 8e 8a	16g	16e	16g	16cc#	.	.	.	.	.	.	.	.	.
.	.	.	.	16f#JJ	16f#JJ	16aJJ	16dd#XJJ	.	.	.	.	.	.	.	.	.
=2	=2	=2	=2	=2	=2	=2	=2	=2	=2	=2	=2	=2	=2	=2	=2	=2
8r	8EEL 8C#X 8E 8A	.	8EL 8c#X 8e 8a	16eLL	16gLL	16bLL	16eeLL	8r	4E]	[2AA^	2e_	2A]	2r	2r	2r	2r
.	.	.	.	16c#X	16b	16ee	16gg	.	.	.	.	.	.	.	.	.
8AAA 8AA	8EEJ 8C# 8E 8A	.	8EJ 8c# 8e 8a	16e	16g	16b	16ee	8AA	.	.	.	.	.	.	.	.
.	.	.	.	16f#XJJ	16f#XJJ	16aJJ	16ddnJJ	.	.	.	.	.	.	.	.	.
4EEE 4EE	8EEL 8C# 8E 8A	.	8EL 8c# 8e 8a	16gLL	16eLL	16gLL	16cc#XLL	4E	[4E^	.	.	.	.	.	.	.
.	.	.	.	16a	16f#	16b	16dd#X	.	.	.	.	.	.	.	.	.
.	8EEJ 8C# 8E 8A	.	8EJ 8c# 8e 8a	16b	16g	16cc#X	16ee	.	.	.	.	.	.	.	.	.
.	.	.	.	16aJJ	16aJJ	16dd#XJJ	16ff#XJJ	.	.	.	.	.	.	.	.	.
=3	=3	=3	=3	=3	=3	=3	=3	=3	=3	=3	=3	=3	=3	=3	=3	=3
*	*	*	*	*^	*^	*	*	*	*	*	*	*	*	*	*	*
4r	8EEL 8C#X 8E 8A	.	8EL 8c#X 8e 8a	16gLL	4ryy	16b-XLL	2ee	16eeLL	16ggLL	4r	2E_	2AA_	4e]	2A^	2r	8r	8r	8r
.	.	.	.	16f#X	.	16a	.	16ff#X	16aa	.	.	.	.	.	.	.	.	.
.	8EEJ 8C# 8E 8A	mf	8EJ 8c# 8e 8a	16e	.	16cc#X	.	16gg	16bb-X	.	.	.	.	.	.	8E	8b-X	8bb-X
.	.	.	.	16f#JJ	.	16ddJJ	.	16ff#JJ	16aaJJ	.	.	.	.	.	.	.	.	.
4EEE 4EE	8EEL 8C# 8E 8A	.	8EL 8c# 8e 8a	16gLL	4a	16eeLL	.	16eeLL	16ggLL	4E	.	.	[4e	.	.	8EL	8r	8r
.	.	.	.	16f#	.	16dd	.	16ff#	16aa	.	.	.	.	.	.	.	.	.
.	8EEJ 8C# 8E 8A	.	8EJ 8c# 8e 8a	16e	.	16cc#	.	16gg	16bb-	.	.	.	.	.	.	8EJ	8b-	8bb-
.	.	.	.	16f#JJ	.	16ddJJ	.	16ff#JJ	16aaJJ	.	.	.	.	.	.	.	.	.
=4	=4	=4	=4	=4	=4	=4	=4	=4	=4	=4	=4	=4	=4	=4	=4	=4	=4	=4
!!pagebreak:original
8r	8EEL 8C#X 8E 8A	.	8EL 8c#X 8e 8a	16gLL	2a	16eeLL	2ee	16eeLL	16ggLL	8r	4E]	2AA]	2e_	[2A^	2r	8EL	8r	8r
.	.	.	.	16f#X	.	16dd	.	16ff#X	16aa	.	.	.	.	.	.	.	.	.
!	!	!	!	!	!	!	!	!	!	!	!	!	!	!	!	!LO:TX:t=cresc.	!	!
4AAA 4AA	8EEJ 8C# 8E 8A	.	8EJ 8c# 8e 8a	16e	.	16cc#X	.	16gg	16bb-X	4AA	.	.	.	.	.	8AJ 8c#X	8b-X	8bb-X
.	.	.	.	16f#JJ	.	16ddJJ	.	16ff#JJ	16aaJJ	.	.	.	.	.	.	.	.	.
.	8EEL 8C# 8E 8A	.	8EL 8c# 8e 8a	16gLL	.	16eeLL	.	16eeLL	16ggLL	.	[4E^	.	.	.	.	8AL 8c#	4r	4r
.	.	.	.	16a	.	16ff#X	.	16a	16ff#X	.	.	.	.	.	.	.	.	.
8r	8EEJ 8C# 8E 8A	.	8EJ 8c# 8e 8a	16g	.	16ee	.	16ee	16gg	8r	.	.	.	.	.	8AJ 8c#	.	.
.	.	.	.	16f#JJ	.	16ddJJ	.	16ff#JJ	16aaJJ	.	.	.	.	.	.	.	.	.
=5	=5	=5	=5	=5	=5	=5	=5	=5	=5	=5	=5	=5	=5	=5	=5	=5	=5	=5
4AAA 4AA	8EEL 8C#X 8E 8A	.	8EL 8c#X 8e 8a	16eLL	2a	16cc#XLL	2ee	16ggLL	16bb-XLL	4AA	4E]	[2AA^	2e_	2A]	2r	8EL 8c#X	8bb-X	8ggg-X
.	.	.	.	16f#X	.	16dd	.	16ff#X	16aa	.	.	.	.	.	.	.	.	.
.	8EEJ 8C# 8E 8A	.	8EJ 8c# 8e 8a	16g	.	16ee	.	16ee	16gg	.	.	.	.	.	.	8AJ 8c#	8r	8r
.	.	.	.	16aJJ	.	16ff#XJJ	.	16aJJ	16ff#XJJ	.	.	.	.	.	.	.	.	.
8r	8EEL 8C# 8E 8A	.	8EL 8c# 8e 8a	16gLL	.	16eeLL	.	16eeLL	16ggLL	8r	[4E^	.	.	.	.	8AL 8c#	8r	8r
.	.	.	.	16f#	.	16dd	.	16ff#	16aa	.	.	.	.	.	.	.	.	.
8AAA 8AA	8EEJ 8C# 8E 8A	.	8EJ 8c# 8e 8a	16e	.	16cc#	.	16gg	16bb-	8AA	.	.	.	.	.	8EJ 8c#	8b-X	8bb-X
.	.	.	.	16f#JJ	.	16ddJJ	.	16ff#JJ	16aaJJ	.	.	.	.	.	.	.	.	.
=6	=6	=6	=6	=6	=6	=6	=6	=6	=6	=6	=6	=6	=6	=6	=6	=6	=6	=6
4r	8EEL 8C#X 8E 8A	.	8EL 8c#X 8e 8a	16eLL	2a	16eeLL	2ee	16eeLL	16ggLL	4r	2E_	2AA_	4e]	2A^	2r	8AL 8c#X	4r	4r
.	.	.	.	16f#X	.	16ff#X	.	16a	16ff#X	.	.	.	.	.	.	.	.	.
.	8EEJ 8C# 8E 8A	.	8EJ 8c# 8e 8a	16g	.	16ee	.	16ee	16gg	.	.	.	.	.	.	8AJ 8c#	.	.
.	.	.	.	16aJJ	.	16ddJJ	.	16ff#XJJ	16aaJJ	.	.	.	.	.	.	.	.	.
4AAA 4AA	8EEL 8C# 8E 8A	.	8EL 8c# 8e 8a	16gLL	.	16cc#XLL	.	16ggLL	16bb-XLL	4AA	.	.	[4e	.	.	8EL 8c#	8bb-X	8ggg-X
.	.	.	.	16f#	.	16dd	.	16ff#	16aa	.	.	.	.	.	.	.	.	.
.	8EEJ 8C# 8E 8A	.	8EJ 8c# 8e 8a	16e	.	16ee	.	16ee	16gg	.	.	.	.	.	.	8AJ 8c#	8r	8r
.	.	.	.	16f#JJ	.	16ff#JJ	.	16ddJJ	16ff#JJ	.	.	.	.	.	.	.	.	.
=7	=7	=7	=7	=7	=7	=7	=7	=7	=7	=7	=7	=7	=7	=7	=7	=7	=7	=7
8r	8EEL 8C#X 8E 8A	.	8EL 8c#X 8e 8a	16gLL	2a	16eeLL	2ee	16eeLL	16ggLL	8r	4E]	2AA_	2e_	[2A^	4r	8AL 8c#X	8r	8r
.	.	.	.	16f#X	.	16dd	.	16ff#X	16aa	.	.	.	.	.	.	.	.	.
4AAA 4AA	8EEJ 8C# 8E 8A	.	8EJ 8c# 8e 8a	16e	.	16cc#X	.	16gg	16bb-X	4AA	.	.	.	.	.	8EJ 8c#	8b-X	8bb-X
.	.	.	.	16f#JJ	.	16aJJ	.	16ff#JJ	16aaJJ	.	.	.	.	.	.	.	.	.
.	8EEL 8C# 8E 8A	.	8EL 8c# 8e 8a	16eLL	.	16bLL	.	16eeLL	16ggLL	.	[4E^	.	.	.	8r	8AL 8c#	4r	4r
.	.	.	.	16f#	.	16a	.	16cc#X	16ff#X	.	.	.	.	.	.	.	.	.
8EEE 8EE	8EEJ 8C# 8E 8A	.	8EJ 8c# 8e 8a	16a	.	16cc#	.	16a	16dd#X	8E	.	.	.	.	8EE	8AJ 8c#	.	.
.	.	.	.	16f#JJ	.	16aJJ	.	16cc#JJ	16eeJJ	.	.	.	.	.	.	.	.	.
*	*	*	*	*v	*v	*	*	*	*	*	*v	*v	*v	*v	*	*	*	*
*	*	*	*	*	*v	*v	*	*	*	*	*	*	*	*	*
==	==	==	==	==	==	==	==	==	==	==	==	==	==	==
*-	*-	*-	*-	*-	*-	*-	*-	*-	*-	*-	*-	*-	*-	*-
!!!system-decoration: [(s1,s2,s3,s4)][(s5,s6)][(s7)][(s8,s9,s10,s11,s12,s13,s14)]
!!!ONB: Converted from MusicXML on 2019/06/05
